X:1
T:Title
%%score { 1 | 2 }
L:1/8
Q:1/4=121
M:4/4
K:Eb
V:1 treble nm="Grand Piano"
V:2 bass 
V:1
 [EG]4 [FB]2 [DF]2 | E4 c4 | B2 c2 A2 [DA]2 | [EG]8 | [EG]4 [EG]2 [E=A]2 | [DB]4 [Ee]4 | %6
w: H.~J.~E.~Holmes * *||||||
 [Fd]2 c2 G2 =A2 | [DB]8 | c4 B2 e2 | e4 [Ad]4 | [Ad]2 [Gc]2 [FB]2 [DF]2 | [EG]8 | %12
w: ||||||
 [EG]4 [B,EG]2 [B,DF]2 | [B,EB]4 [G,CE]4 | [B,CG]2 [A,CF]2 [A,C]2 [A,B,D]2 | [G,B,E]8 |] %16
w: ||||
V:2
 [E,B,]4 [D,B,]2 [B,,A,]2 | [C,G,]4 [A,E]4 | [G,B,E]2 [A,E]2 [F,CE]2 [B,,B,]2 | [E,B,]8 | %4
 [E,B,]4 [C,C]2 [F,C]2 | [G,B,]4 [C,C]4 | [D,B,]2 [E,G,E]2 [F,CE]2 [F,CE]2 | [B,,B,]8 | %8
 [A,DF]4 [A,DF]2[K:bass] [G,B,E]2 | [F,A,F]4 [F,A,]4 | [F,A,]2 [E,C]2 [D,F,]2 [B,,B,]2 | [E,B,]8 | %12
 [C,E,]4 B,,2 A,,2 | G,,4 C,4 | A,,2 A,,2 B,,2 B,,2 | E,8 |] %16

